Obsidian-SemiLight/actions/22s/foreignkey_constraint.svg

<svg viewBox="0 0 22 22" xmlns="http://www.w3.org/2000/svg"><path d="m5 3v16h1v-8h8v-1h-8v-6h10v-1h-10z" fill="#4d4d4d"/></svg>

<svg xmlns="http://www.w3.org/2000/svg" viewBox="0 0 22 22">
  <defs id="defs3051">
    <style type="text/css" id="current-color-scheme">
      .ColorScheme-Text {
        color:#4d4d4d;
      }
      </style>
  </defs>
 <path 
     style="fill:currentColor;fill-opacity:1;stroke:none" 
     d="M 5 3 L 5 19 L 6 19 L 6 11 L 14 11 L 14 10 L 6 10 L 6 4 L 16 4 L 16 3 L 6 3 L 5 3 z "
     class="ColorScheme-Text"
     />
</svg>
